X:4
T:Walzer CF 2- chords
M:3/4
L:1/8
K:Cmaj%%MIDI gchordon
"G7"Gg gG f2 | "C"Ge eG c2 | "G7"g2 dG Bd | "C"c2 eG ce |\
"G7"Gg gG f2 | "C"Ge eG ce | "G7"g2 dG Bd | "C"c2z2z2 :: [K:Fmaj] 
"" "C7"c2B2G2 | "F"FA cf ed | "C7"c2B2G2 | "F"F2 AC FA | \
"C7"c2B2G2 | "F"FA cf ed | "C7"c2B2G2 | "F"F2z2z2 :| 

